packages/swarm-icons/src/icons/large/Send Selected.svg

<svg xmlns="http://www.w3.org/2000/svg" width="28" height="28" viewBox="0 0 28 28">
  <path fill="#212121" d="M8.28158383,16.7719838 L2.0527864,13.6575851 C1.28862965,13.2755067 1.32454085,12.1730603 2.111943,11.8415225 L24.111943,2.57836462 C24.846325,2.26915115 25.6297179,2.90111151 25.4828722,3.68428854 L22.009188,22.2106043 C21.8867506,22.8636038 21.1733407,23.2178622 20.5791022,22.920743 L15.0483302,20.155357 L11.3123699,23.8913173 C10.6824051,24.5212822 9.60526316,24.0751154 9.60526316,23.1842105 L9.60526316,18.3884055 L23,4.85355339 L8.28158383,16.7719838 Z"/>
</svg>

<svg xmlns="http://www.w3.org/2000/svg" width="28" height="28"><path fill="#212121" d="M8.282 16.772l-6.23-3.114a1 1 0 01.06-1.816l22-9.264a1 1 0 011.37 1.106L22.01 22.211a1 1 0 01-1.43.71l-5.53-2.766-3.737 3.736c-.63.63-1.707.184-1.707-.707v-4.796L23 4.854 8.282 16.772z"/></svg>
